T: Danse Breton
M: 4/4
L: 1/8
K: Amin
Ae/A/ ed/e/|fe d/c/B/c/|dB ed/c/|B/A/G/A/ cB|!Ae/A/ ed/e/|fe d/c/B/c/|dB ed/c/|B/A/B/c/ A2:|!|:AA Bc/B/|AA B>c|dB ed/c/|B/A/G/A/ cB|!AA Bc/B/|AA B>c|dB ed/c/|B/A/B/c/ A2:|
